build/img/icon/icon_advantages_5.svg

<svg width="65" height="52" viewBox="0 0 65 52" fill="none" xmlns="http://www.w3.org/2000/svg">
<path d="M1.29883 26.1777L3.79492 0.523438H28.2358V8.91309H11.8379L10.9365 19.7295C12.8317 18.4583 14.7847 17.8228 16.7954 17.8228C20.9556 17.8228 24.1566 19.3019 26.3984 22.2603C28.6634 25.2186 29.7959 29.4019 29.7959 34.8101C29.7959 39.8716 28.4554 43.9508 25.7744 47.0479C23.0934 50.1449 19.5111 51.6934 15.0273 51.6934C12.3695 51.6934 9.90804 51.0693 7.64307 49.8213C5.37809 48.5501 3.58691 46.7936 2.26953 44.5518C0.97526 42.3099 0.316569 39.7676 0.293457 36.9248H10.0005C10.1623 39.028 10.6823 40.6574 11.5605 41.813C12.4388 42.9686 13.5713 43.5464 14.958 43.5464C16.5758 43.5464 17.8239 42.7721 18.7021 41.2236C19.5804 39.652 20.0195 37.3177 20.0195 34.2207C20.0195 31.3086 19.488 29.113 18.4248 27.6338C17.3848 26.1546 15.9172 25.415 14.022 25.415C12.173 25.415 10.7401 26.0506 9.72314 27.3218L9.09912 28.1885L1.29883 26.1777ZM54.4102 22.7109H64.2212V31.8286H54.4102V45.9385H45.1191V31.8286H35.1348V22.7109H45.1191V9.19043H54.4102V22.7109Z" fill="url(#paint0_linear)"/>
<defs>
<linearGradient id="paint0_linear" x1="-3" y1="2" x2="28.5181" y2="60.6935" gradientUnits="userSpaceOnUse">
<stop stop-color="#D10A42"/>
<stop offset="1" stop-color="#0041CA"/>
</linearGradient>
</defs>
</svg>

<svg width="65" height="52" fill="none" xmlns="http://www.w3.org/2000/svg"><path d="M1.299 26.178L3.795.523h24.44v8.39H11.839l-.901 10.817c1.895-1.272 3.848-1.907 5.858-1.907 4.16 0 7.362 1.479 9.603 4.437 2.265 2.959 3.398 7.142 3.398 12.55 0 5.062-1.34 9.14-4.022 12.238-2.68 3.097-6.263 4.645-10.747 4.645-2.657 0-5.119-.624-7.384-1.872a14.173 14.173 0 01-5.373-5.27C.975 42.31.317 39.769.293 36.926h9.708c.161 2.103.681 3.732 1.56 4.888.878 1.156 2.01 1.733 3.397 1.733 1.618 0 2.866-.774 3.744-2.322.878-1.572 1.317-3.906 1.317-7.003 0-2.912-.531-5.108-1.594-6.587-1.04-1.48-2.508-2.219-4.403-2.219-1.849 0-3.282.636-4.299 1.907l-.624.867-7.8-2.011zM54.41 22.71h9.811v9.118h-9.81v14.11h-9.292v-14.11h-9.984V22.71h9.984V9.19h9.291v13.52z" fill="url(#paint0_linear)"/><defs><linearGradient id="paint0_linear" x1="-3" y1="2" x2="28.518" y2="60.694" gradientUnits="userSpaceOnUse"><stop stop-color="#D10A42"/><stop offset="1" stop-color="#0041CA"/></linearGradient></defs></svg>
